!!!OTL: 1191. Zum Namenstage Jesu.
!!!ODT: 1880
!!!ARE: Europa, Mitteleuropa, Deutschland
!!!SCT: E1191A
!!!TXL: @@DE
!!!YEM: Copyright 1995, estate of Helmut Schaffrath.
**kern	**text
*ICvox	*
*M2/4	*
*k[b-]	*
*F:	*
!LO:TX:a:t=Mäßig langsam.	!
!LO:TX:a:t=Aus dem Taunus. 1880.	!
{8cc	Es
=1	=1
8ff	blühn
8cc	drei
16dd	Blümchen
16cc	.
16b-L	am
16aJ	.
=2	=2
8b-	Himmel-
8dd	.
8cc	-reich,
8r}	.
=3	=3
{8ff	[Freu-
8ee	-e
8dd	dich
8cc	Ma-
=4	=4
8dd	-ri-
8cc	-a!]
8r}	.
{8cc	ſie
=5	=5
8ff	ſitʒen
8cc	alle
16ddL	drei
16ccJ	.
16b-L	auf
16aJ	.
=6	=6
8b-	ei-
8dd	-nem
8cc	Ʒweig.
8r}	.
=7	=7
{4b-	[Hilf,
8cc	hilf,
8a	Ma-
=8	=8
8g	-ri-
8f	-a!]
8r}	.
{8cc	ſie
=9	=9
8ff	ſitʒen
8cc	alle
16ddL	drei
16ccJ	.
16b-L	auf
16aJ	.
=10	=10
8b-	ei-
8dd	-nem
8cc	Ʒweig.
8r}	.
=11	=11
{4b-	[Hilf,
8cc	hilf,
8a	Ma-
=12	=12
8g	-ri-
8f	-a!]
8r}	.
==	==
!!!AGN: Ansinge -, Brauchtums - Lied, Kirchen - Fest, Silvester, Namenstag, und Taufe Jesu
!!!ONB: ESAC (Essen Associative Code) Database: ERK3
!!!AMT: simple duple
!!!AIN: vox
!!!EED: Helmut Schaffrath
!!!EEV: 1.0
!!!GTL: Ansingelieder an Volks- und Kirchenfesten.
!!!URL-scan: https://rosdok.uni-rostock.de/mcrviewer/recordIdentifier/rosdok_ppn745177999/iview2/phys_0111.iview2?x=188.1684953369795&y=1671.5523414022173&scale=0.701185927818147&rotation=0&layout=singlePageLayout
!!!ENC: Anna Maria Matuszewska
!!!EEV: 2024/12/27
*-	*-
